svgs/solid/right.svg

<svg xmlns="http://www.w3.org/2000/svg" viewBox="0 0 448 512"><!--! Font Awesome Pro 6.0.0-alpha3 by @fontawesome - https://fontawesome.com License - https://fontawesome.com/license (Commercial License) --><path d="M448 256c0 8.188-3.125 16.38-9.375 22.62l-160 160c-9.156 9.156-22.91 11.89-34.88 6.938C231.8 440.6 224 428.9 224 416v-96H32c-17.67 0-32-14.33-32-32V224c0-17.67 14.33-32 32-32h192V96c0-12.94 7.797-24.61 19.75-29.56c11.97-4.953 25.72-2.219 34.88 6.938l160 160C444.9 239.6 448 247.8 448 256z"/></svg>

<svg xmlns="http://www.w3.org/2000/svg" viewBox="0 0 448 512"><!-- Font Awesome Pro 6.0.0-alpha2 by @fontawesome - https://fontawesome.com License - https://fontawesome.com/license (Commercial License) --><path d="M448 256C448 264.188 444.875 272.375 438.625 278.625L278.625 438.625C269.469 447.781 255.719 450.516 243.75 445.562C231.797 440.609 224 428.938 224 416V320H32C14.326 320 0 305.672 0 288V224C0 206.326 14.326 192 32 192H224V96C224 83.062 231.797 71.391 243.75 66.438C255.719 61.484 269.469 64.219 278.625 73.375L438.625 233.375C444.875 239.625 448 247.812 448 256Z"/></svg>
